svgs/materials/hardware/cast_for_education.svg

<svg xmlns="http://www.w3.org/2000/svg" enable-background="new 0 0 24 24" height="24" viewBox="0 0 24 24" width="24"><g><path d="M21,3H3C1.9,3,1,3.9,1,5v3h2V5h18v14h-7v2h7c1.1,0,2-0.9,2-2V5C23,3.9,22.1,3,21,3z M1,18v3h3C4,19.34,2.66,18,1,18z M1,14 v2c2.76,0,5,2.24,5,5h2C8,17.13,4.87,14,1,14z M1,10v2c4.97,0,9,4.03,9,9h2C12,14.92,7.07,10,1,10z M11,11.09v2L14.5,15l3.5-1.91 v-2L14.5,13L11,11.09z M14.5,6L9,9l5.5,3L20,9L14.5,6z"/><path d="M0,0h24v24H0V0z" fill="none"/></g></svg>

<?xml version="1.0" encoding="UTF-8" standalone="no"?>
<svg
   enable-background="new 0 0 24 24"
   height="24"
   viewBox="0 0 24 24"
   width="24"
   version="1.1"
   id="svg8"
   sodipodi:docname="cast_for_education.svg"
   inkscape:version="1.2 (dc2aeda, 2022-05-15)"
   xmlns:inkscape="http://www.inkscape.org/namespaces/inkscape"
   xmlns:sodipodi="http://sodipodi.sourceforge.net/DTD/sodipodi-0.dtd"
   xmlns="http://www.w3.org/2000/svg"
   xmlns:svg="http://www.w3.org/2000/svg">
  <defs
     id="defs12" />
  <sodipodi:namedview
     id="namedview10"
     pagecolor="#ffffff"
     bordercolor="#000000"
     borderopacity="0.25"
     inkscape:showpageshadow="2"
     inkscape:pageopacity="0.0"
     inkscape:pagecheckerboard="0"
     inkscape:deskcolor="#d1d1d1"
     showgrid="false"
     inkscape:zoom="9.8333333"
     inkscape:cx="-4.4237288"
     inkscape:cy="12"
     inkscape:window-width="1309"
     inkscape:window-height="456"
     inkscape:window-x="0"
     inkscape:window-y="25"
     inkscape:window-maximized="0"
     inkscape:current-layer="svg8" />
  <path
     d="M 21,3 H 3 C 1.9,3 1,3.9 1,5 V 8 H 3 V 5 h 18 v 14 h -7 v 2 h 7 c 1.1,0 2,-0.9 2,-2 V 5 C 23,3.9 22.1,3 21,3 Z M 1,18 v 3 H 4 C 4,19.34 2.66,18 1,18 Z m 0,-4 v 2 c 2.76,0 5,2.24 5,5 H 8 C 8,17.13 4.87,14 1,14 Z m 0,-4 v 2 c 4.97,0 9,4.03 9,9 h 2 C 12,14.92 7.07,10 1,10 Z m 10,1.09 v 2 L 14.5,15 18,13.09 v -2 L 14.5,13 Z M 14.5,6 9,9 14.5,12 20,9 Z"
     id="path2" />
  <path
     d="M 0,0 H 24 V 24 H 0 Z"
     fill="none"
     id="path4" />
</svg>
